icons-dark/apps/48/qelectrotech.svg

<?xml version="1.0" encoding="UTF-8" standalone="no"?>

<!-- Created with Inkscape (http://www.inkscape.org/) -->
<svg width="48" version="1.1" xmlns="http://www.w3.org/2000/svg" height="48" xmlns:xlink="http://www.w3.org/1999/xlink" xmlns:inkscape="http://www.inkscape.org/namespaces/inkscape">
 <defs id="defs3211">
  <linearGradient inkscape:collect="always" xlink:href="#linearGradient4256" id="linearGradient6638" y1="534.79797" y2="510.798" gradientUnits="userSpaceOnUse" x2="0" gradientTransform="matrix(1 0 0 1 -182.85714 -77.1501)"/>
  <linearGradient id="linearGradient4256">
   <stop style="stop-color:#8cbdf8" id="stop4258"/>
   <stop offset="1" style="stop-color:#d5e8ff" id="stop4260"/>
  </linearGradient>
  <linearGradient inkscape:collect="always" xlink:href="#linearGradient4227-0-8" id="linearGradient6640" y1="513.38367" x1="396.57144" y2="531.38367" gradientUnits="userSpaceOnUse" x2="412.57144" gradientTransform="matrix(1 0 0 1 -182.85714 -76.73579)"/>
  <linearGradient inkscape:collect="always" id="linearGradient4227-0-8">
   <stop style="stop-color:#292c2f" id="stop4229-3-3"/>
   <stop offset="1" style="stop-opacity:0" id="stop4231-90-8"/>
  </linearGradient>
  <linearGradient inkscape:collect="always" xlink:href="#linearGradient4232" id="linearGradient4849" y1="43" y2="5" gradientUnits="userSpaceOnUse" x2="0" gradientTransform="matrix(1.0810811 0 0 1.0810811 199.76834 420.70195)"/>
  <linearGradient id="linearGradient4232">
   <stop style="stop-color:#3889e9" id="stop4234-0"/>
   <stop offset="1" style="stop-color:#5ea5fb" id="stop4236"/>
  </linearGradient>
  <linearGradient inkscape:collect="always" xlink:href="#linearGradient4232" id="linearGradient4849-7" y1="43" y2="5" gradientUnits="userSpaceOnUse" x2="0" gradientTransform="matrix(1.0810811 0 0 1.0810811 -1.94595 1002.4163)"/>
  <linearGradient inkscape:collect="always" xlink:href="#linearGradient4227-0-8" id="linearGradient6640-3" y1="513.38367" x1="396.57144" y2="531.38367" gradientUnits="userSpaceOnUse" x2="412.57144" gradientTransform="matrix(1 0 0 1 -384.57143 504.97853)"/>
  <linearGradient inkscape:collect="always" xlink:href="#linearGradient4256" id="linearGradient6638-4" y1="534.79797" y2="510.798" gradientUnits="userSpaceOnUse" x2="0" gradientTransform="matrix(1 0 0 1 -384.57143 -499.79798)"/>
 </defs>
 <metadata id="metadata3214"/>
 <g inkscape:label="Layer 1" inkscape:groupmode="layer" id="layer1" transform="matrix(1 0 0 1 0 -1004.3622)">
  <path inkscape:connector-curvature="0" style="fill:#ffffff;fill-rule:evenodd" id="path4186" d="m 5,1009.3622 38,0 0,38 -38,0 z"/>
  <path inkscape:connector-curvature="0" style="fill:url(#linearGradient4849-7);fill-rule:evenodd" id="rect9148" d="m 4,1008.3622 40,0 0,32 0,8 -8,0 -32,0 z"/>
  <path inkscape:connector-curvature="0" style="fill:#ffffff;opacity:0.2;color:#000000;fill-rule:evenodd;stroke-width:2" id="rect5357-4-0" d="m 5,1009.3622 0,1 0,36 0,1 1,0 36,0 1,0 0,-1 0,-37 -38,0 z m 1,1 36,0 0,36 -36,0 0,-36 z"/>
  <path inkscape:connector-curvature="0" style="fill:url(#linearGradient6640-3);opacity:0.2;fill-rule:evenodd" id="path4225" d="m 10,1036.3622 13,12 21,0 0,-7 0,-18 -5,-5 0,18 -4,0 -3,3 -4,-3 z"/>
  <path style="fill:url(#linearGradient6638-4);color:#000000;fill-rule:evenodd;stroke-width:2" id="rect6279" d="M 19.5 11 C 17.734735 11 16.271341 12.300997 16.03125 14 L 16 14 L 15.3125 14 L 11 14 L 10 14 L 10 22 L 8 22 L 8 23 L 13 23 L 13 22 L 11 22 L 11 15 L 15.3125 15 L 16 15 L 16.03125 15 C 16.271341 16.699003 17.734735 18 19.5 18 C 21.265265 18 22.728659 16.699003 22.96875 15 L 23 15 L 23.3125 15 L 27 15 L 27 17 L 36 17 L 36 15 L 38 15 L 38 31 L 34.96875 31 C 34.72866 29.301 33.26527 28 31.5 28 C 29.73473 28 28.27134 29.301 28.03125 31 L 24.90625 31 C 24.70241 30.4136 24.15584 30 23.5 30 C 22.67157 30 22 30.6716 22 31.5 C 22 32.3284 22.67157 33 23.5 33 C 24.15584 33 24.70241 32.5864 24.90625 32 L 28.03125 32 C 28.27134 33.699 29.73473 35 31.5 35 C 33.26527 35 34.72866 33.699 34.96875 32 L 38 32 L 39 32 L 39 14 L 36 14 L 36 12 L 27 12 L 27 14 L 23.3125 14 L 23 14 L 22.96875 14 C 22.728659 12.300997 21.265265 11 19.5 11 z M 19.5 12 C 20.003163 12 20.482791 12.150474 20.875 12.40625 L 19.5 13.78125 L 18.125 12.40625 C 18.517209 12.15045 18.996837 12 19.5 12 z M 17.40625 13.125 L 18.78125 14.5 L 17.40625 15.875 C 17.150476 15.482791 17 15.003159 17 14.5 C 17 13.9968 17.150476 13.5172 17.40625 13.125 z M 21.59375 13.125 C 21.849524 13.517209 22 13.996841 22 14.5 C 22 15.0032 21.849524 15.4828 21.59375 15.875 L 20.21875 14.5 L 21.59375 13.125 z M 19.5 15.21875 L 20.875 16.59375 C 20.482791 16.84945 20.003163 17 19.5 17 C 18.996837 17 18.517209 16.849526 18.125 16.59375 L 19.5 15.21875 z M 9 24 L 9 25 L 10 25 L 10 32 L 11 32 L 14.09375 32 C 14.29759 32.5864 14.84416 33 15.5 33 C 16.32843 33 17 32.3284 17 31.5 C 17 31.3965 16.98865 31.2852 16.96875 31.1875 L 22.28125 28.125 L 21.78125 27.25 L 16.4375 30.34375 C 16.17957 30.13425 15.85817 30 15.5 30 C 14.84416 30 14.29759 30.4136 14.09375 31 L 11 31 L 11 25 L 12 25 L 12 24 L 9 24 z M 31.5 29 C 32.88071 29 34 30.1193 34 31.5 C 34 32.8807 32.88071 34 31.5 34 C 30.11929 34 29 32.8807 29 31.5 C 29 30.1193 30.11929 29 31.5 29 z M 15.5 31 C 15.77614 31 16 31.2239 16 31.5 C 16 31.7761 15.77614 32 15.5 32 C 15.22386 32 15 31.7761 15 31.5 C 15 31.2239 15.22386 31 15.5 31 z M 23.5 31 C 23.77614 31 24 31.2239 24 31.5 C 24 31.7761 23.77614 32 23.5 32 C 23.22386 32 23 31.7761 23 31.5 C 23 31.2239 23.22386 31 23.5 31 z " transform="matrix(1 0 0 1 0 1004.3622)"/>
 </g>
</svg>

<svg width="48" xmlns="http://www.w3.org/2000/svg" height="48">
 <defs>
  <linearGradient id="a" y1="1048.9" y2="1007.82" gradientUnits="userSpaceOnUse" x2="0">
   <stop stop-color="#3889e9"/>
   <stop offset="1" stop-color="#5ea5fb"/>
  </linearGradient>
  <linearGradient id="b" y1="513.38" x1="396.57" y2="531.38" gradientUnits="userSpaceOnUse" x2="412.57" gradientTransform="translate(-384.57 504.98)">
   <stop stop-color="#292c2f"/>
   <stop offset="1" stop-opacity="0"/>
  </linearGradient>
  <linearGradient id="c" y1="534.8" y2="510.8" gradientUnits="userSpaceOnUse" x2="0" gradientTransform="translate(-384.57-499.8)">
   <stop stop-color="#8cbdf8"/>
   <stop offset="1" stop-color="#d5e8ff"/>
  </linearGradient>
 </defs>
 <g fill-rule="evenodd" transform="translate(0-1004.36)">
  <path fill="#ffffff" d="m5 1009.36h38v38h-38z"/>
  <path fill="url(#a)" d="m4 1008.36h40v40h-40z"/>
  <path opacity=".2" fill="#ffffff" color="#000000" stroke-width="2" d="m5 1009.36v38h38v-38zm1 1h36v36h-36z"/>
  <path opacity=".2" fill="url(#b)" d="m10 1036.36l13 12h21v-25l-5-5v18h-4l-3 3-4-3z"/>
  <path fill="url(#c)" color="#000000" stroke-width="2" d="m19.5 11c-1.765 0-3.229 1.301-3.469 3h-6.03v8h-2v1h5v-1h-2v-7h5.03c.24 1.699 1.703 3 3.469 3 1.765 0 3.229-1.301 3.469-3h4.03v2h9v-2h2v16h-3.03c-.24-1.699-1.703-3-3.469-3-1.765 0-3.229 1.301-3.469 3h-3.125c-.204-.586-.75-1-1.406-1-.828 0-1.5.672-1.5 1.5 0 .828.672 1.5 1.5 1.5.656 0 1.202-.414 1.406-1h3.125c.24 1.699 1.703 3 3.469 3 1.765 0 3.229-1.301 3.469-3h4.03v-18h-3v-2h-9v2h-4.03c-.24-1.699-1.703-3-3.469-3m0 1c.503 0 .983.15 1.375.406l-1.375 1.375-1.375-1.375c.392-.256.872-.406 1.375-.406m-2.094 1.125l1.375 1.375-1.375 1.375c-.256-.392-.406-.872-.406-1.375 0-.503.15-.983.406-1.375m4.188 0c.256.392.406.872.406 1.375 0 .503-.15.983-.406 1.375l-1.375-1.375zm-2.094 2.094l1.375 1.375c-.392.256-.872.406-1.375.406-.503 0-.983-.15-1.375-.406zm-10.5 8.781v1h1v7h4.094c.204.586.75 1 1.406 1 .828 0 1.5-.672 1.5-1.5 0-.104-.011-.215-.031-.313l5.313-3.063-.5-.875-5.344 3.094c-.258-.209-.579-.344-.938-.344-.656 0-1.202.414-1.406 1h-3.094v-6h1v-1zm22.5 5c1.381 0 2.5 1.119 2.5 2.5 0 1.381-1.119 2.5-2.5 2.5-1.381 0-2.5-1.119-2.5-2.5 0-1.381 1.119-2.5 2.5-2.5m-16 2c.276 0 .5.224.5.5 0 .276-.224.5-.5.5-.276 0-.5-.224-.5-.5 0-.276.224-.5.5-.5m8 0c.276 0 .5.224.5.5 0 .276-.224.5-.5.5-.276 0-.5-.224-.5-.5 0-.276.224-.5.5-.5" transform="translate(0 1004.36)"/>
 </g>
</svg>
